assets/images/icons/viber.svg

<svg width="24" height="24" viewBox="0 0 24 24" fill="none" xmlns="http://www.w3.org/2000/svg">
<path d="M11.9469 1C10.169 1.02567 6.34923 1.31534 4.21515 3.26146C2.63004 4.83816 2.07091 7.14179 2.01278 9.9991C1.95466 12.8555 1.879 18.2117 7.07536 19.6637H7.07813L7.07443 21.8784C7.07443 21.8784 7.0403 22.774 7.63725 22.9574C8.35415 23.1792 8.7758 22.499 9.46409 21.7638C9.83961 21.3605 10.3609 20.7701 10.753 20.3155C14.3052 20.6143 17.0381 19.9341 17.35 19.8342C18.066 19.6032 22.1256 19.0862 22.7862 13.7318C23.469 8.21339 22.4541 4.72082 20.6272 3.14779C20.0773 2.64362 17.8537 1.03942 12.9 1.01833C12.9 1.01833 12.5356 0.995417 11.9433 1.00275L11.9469 1ZM12.0005 2.55195C12.5033 2.54828 12.8124 2.56753 12.8124 2.56753C17.0031 2.58586 19.0098 3.83989 19.4758 4.25973C21.0212 5.57517 21.8101 8.72215 21.2343 13.3322V13.334C20.677 17.8056 17.3832 18.0861 16.7761 18.2795C16.5177 18.362 14.117 18.9551 11.099 18.7599C11.099 18.7599 8.85146 21.4549 8.14932 22.1553C8.0386 22.2653 7.90943 22.3083 7.82455 22.2873C7.7046 22.257 7.67139 22.1149 7.67231 21.9077L7.69076 18.2245C3.29711 17.0145 3.55268 12.4567 3.60343 10.0706C3.65325 7.68355 4.10443 5.72734 5.44504 4.4119C7.25343 2.78662 10.4956 2.56203 12.0051 2.55103L12.0005 2.55195ZM12.3511 4.93716C12.2795 4.94075 12.2121 4.97138 12.1626 5.02279C12.113 5.0742 12.0852 5.14248 12.0847 5.21364C12.0842 5.2848 12.1112 5.35345 12.16 5.4055C12.2089 5.45755 12.2759 5.48907 12.3474 5.49359C13.8458 5.50276 15.0655 5.98585 16.0638 6.95295C17.0538 7.9118 17.5585 9.21533 17.5705 10.9259C17.5723 11.0789 17.6997 11.2009 17.8537 11.2009C17.9275 11.1999 17.9979 11.1701 18.0497 11.118C18.1015 11.0658 18.1305 10.9955 18.1305 10.9222C18.1176 9.10349 17.5603 7.6258 16.455 6.55511C15.3571 5.49176 13.9712 4.94816 12.352 4.93716H12.3511ZM8.69737 5.57426C8.50122 5.54727 8.30156 5.58495 8.12902 5.68151L8.1198 5.68334C7.72306 5.90976 7.36691 6.19852 7.06244 6.53769C7.0606 6.54136 7.0569 6.54136 7.05506 6.54503C6.80871 6.84112 6.66755 7.12987 6.63064 7.41404C6.62341 7.45642 6.62125 7.4995 6.62418 7.54238C6.62418 7.66705 6.64448 7.78989 6.68415 7.90905L6.69615 7.91822C6.82071 8.35823 7.13256 9.08791 7.80794 10.3053C8.19545 11.0093 8.64109 11.6803 9.14209 12.3091C9.39121 12.6245 9.65877 12.9261 9.94479 13.2112L10.0666 13.3322C10.3526 13.6145 10.6571 13.8822 10.9745 14.1297C11.6079 14.6275 12.2826 15.0713 12.9914 15.4561C14.2167 16.1281 14.9529 16.437 15.394 16.5616L15.4032 16.5745C15.5637 16.6266 15.7336 16.6438 15.9014 16.6249C16.1874 16.5919 16.4799 16.4507 16.7761 16.2032C16.7798 16.2032 16.7789 16.2014 16.7835 16.1986C17.1248 15.8961 17.4136 15.5386 17.6415 15.1463L17.6443 15.1371C17.8519 14.7411 17.7827 14.3653 17.4782 14.1104C17.4745 14.1104 16.8342 13.5787 16.5214 13.3496C16.1893 13.1158 15.8479 12.8986 15.4945 12.6987C15.024 12.4375 14.5424 12.6016 14.3431 12.8582L13.9306 13.3752C13.7184 13.6347 13.3245 13.6007 13.3245 13.6007C10.4458 12.8711 9.67538 9.97526 9.67538 9.97526C9.67538 9.97526 9.64124 9.58475 9.9042 9.37392L10.4236 8.96324C10.6792 8.76615 10.8444 8.28764 10.5805 7.81922C10.3801 7.46748 10.1614 7.12631 9.92542 6.79711C9.67764 6.47497 9.4223 6.15862 9.15962 5.84835C9.04392 5.70439 8.87915 5.60754 8.69645 5.57609L8.69737 5.57426ZM12.8401 6.38094C12.7659 6.37875 12.6939 6.40592 12.64 6.45646C12.586 6.507 12.5544 6.57678 12.5522 6.65045C12.55 6.72411 12.5773 6.79563 12.6282 6.84926C12.6791 6.9029 12.7493 6.93426 12.8235 6.93645C13.8937 7.01437 14.6844 7.36363 15.2639 7.99064C15.8451 8.62132 16.1219 9.38767 16.0998 10.3465C16.1038 10.417 16.1345 10.4834 16.1856 10.5324C16.2367 10.5815 16.3046 10.6096 16.3756 10.6111C16.4467 10.6126 16.5157 10.5874 16.5689 10.5406C16.6221 10.4937 16.6556 10.4287 16.6626 10.3584C16.6857 9.28133 16.3544 8.34815 15.6781 7.61388C14.9954 6.87137 14.0386 6.46528 12.8641 6.38002H12.8419L12.8401 6.38094ZM13.2673 7.87514C13.1962 7.87617 13.1282 7.90387 13.0768 7.95267C13.0255 8.00147 12.9946 8.06776 12.9905 8.13823C12.9831 8.29131 13.1012 8.4224 13.2562 8.43156C13.7387 8.45723 14.0635 8.59198 14.2831 8.81841C14.5045 9.04299 14.6411 9.38675 14.6669 9.88543C14.6764 9.95454 14.7117 10.0176 14.7657 10.0622C14.8197 10.1067 14.8886 10.1295 14.9587 10.126C15.0288 10.1226 15.0951 10.0931 15.1444 10.0435C15.1938 9.99385 15.2225 9.92764 15.2251 9.85793C15.1974 9.26758 15.0267 8.77807 14.69 8.43065C14.3514 8.08414 13.8661 7.90447 13.2876 7.87422H13.2709L13.2673 7.87514Z" fill="white"/>
</svg>

<svg width="24" height="24" fill="none" xmlns="http://www.w3.org/2000/svg"><path d="M11.947 1c-1.778.026-5.598.315-7.732 2.261C2.63 4.838 2.071 7.141 2.013 10c-.058 2.856-.134 8.213 5.062 9.665h.003l-.004 2.214s-.034.896.563 1.08c.717.221 1.139-.459 1.827-1.194.376-.404.897-.994 1.289-1.448 3.552.298 6.285-.382 6.597-.482.716-.23 4.776-.748 5.436-6.102.683-5.519-.332-9.011-2.159-10.584-.55-.504-2.773-2.109-7.727-2.13 0 0-.364-.023-.957-.015L11.947 1zM12 2.552c.502-.004.811.016.811.016 4.191.018 6.198 1.272 6.664 1.692 1.545 1.315 2.334 4.462 1.758 9.072v.002c-.557 4.472-3.85 4.752-4.458 4.945-.258.083-2.659.676-5.677.48 0 0-2.248 2.696-2.95 3.396-.11.11-.24.153-.324.132-.12-.03-.154-.172-.153-.38l.019-3.683c-4.394-1.21-4.138-5.767-4.088-8.153.05-2.387.501-4.344 1.842-5.66 1.808-1.624 5.05-1.849 6.56-1.86L12 2.552zm.35 2.385a.281.281 0 0 0-.266.277.278.278 0 0 0 .262.28c1.499.009 2.719.492 3.717 1.459.99.959 1.494 2.262 1.506 3.973a.281.281 0 0 0 .48.192.278.278 0 0 0 .08-.196c-.012-1.819-.57-3.296-1.675-4.367-1.098-1.063-2.484-1.607-4.103-1.618zm-3.654.637a.91.91 0 0 0-.568.108l-.01.001a4.255 4.255 0 0 0-1.057.855c-.001.003-.005.003-.007.007-.246.296-.387.585-.424.869a1.157 1.157 0 0 0 .054.495l.011.01c.125.44.437 1.169 1.112 2.386.387.704.833 1.375 1.334 2.004.25.316.517.617.803.902l.122.121c.286.282.59.55.908.798.633.497 1.308.941 2.016 1.326 1.226.672 1.962.981 2.403 1.106l.01.012c.16.053.33.07.497.05.286-.032.579-.173.875-.42.004 0 .003-.003.008-.005.34-.303.63-.66.858-1.053l.002-.009c.208-.396.139-.772-.166-1.027-.004 0-.644-.531-.957-.76a12.315 12.315 0 0 0-1.027-.651c-.47-.261-.952-.097-1.15.16l-.413.516c-.213.26-.606.226-.606.226-2.88-.73-3.65-3.626-3.65-3.626s-.034-.39.23-.601l.519-.41c.255-.198.42-.676.157-1.145-.2-.352-.42-.693-.656-1.022a26.016 26.016 0 0 0-.765-.949.76.76 0 0 0-.464-.272l.001-.002zm4.143.807a.28.28 0 0 0-.288.27.277.277 0 0 0 .271.285c1.07.078 1.861.428 2.44 1.055.582.63.859 1.397.837 2.356a.28.28 0 0 0 .276.264.284.284 0 0 0 .287-.253c.023-1.077-.309-2.01-.985-2.744-.683-.743-1.64-1.149-2.814-1.234h-.024zm.427 1.494a.283.283 0 0 0-.276.263.281.281 0 0 0 .265.294c.483.025.807.16 1.027.386.222.225.358.569.384 1.067a.279.279 0 0 0 .292.241.281.281 0 0 0 .266-.268c-.028-.59-.198-1.08-.535-1.427-.339-.347-.824-.527-1.402-.557h-.017l-.004.001z" fill="#fff"/></svg>
